assets/img/icon-twitter.svg

<svg fill="none" height="21" viewBox="0 0 25 21" width="25" xmlns="http://www.w3.org/2000/svg"><path d="m24.1333.4c-1 .6-2.0666 1.06667-3.2666 1.26667-.9334-1.000003-2.2667-1.66667-3.7334-1.66667-2.8 0-5.1333 2.33333-5.1333 5.26667 0 .4.0667.8.1333 1.2-4.26663-.2-7.99997-2.33334-10.5333-5.46667-.46667.8-.666667 1.66667-.666667 2.66667 0 1.8.933337 3.4 2.266667 4.4-.86667 0-1.6-.26667-2.333333-.66667v.06667c0 2.53333 1.733333 4.66663 4.133333 5.13333-.4.1333-.86667.2-1.33333.2-.33334 0-.66667 0-.93334-.0667.66667 2.0667 2.53334 3.6 4.8 3.6667-1.73333 1.4-3.93333 2.2667-6.33333 2.2667-.4 0-.8 0-1.2-.0667 2.26667 1.4667 4.93333 2.3333 7.86667 2.3333 9.40003 0 14.60003-8 14.60003-14.9333 0-.2 0-.46667 0-.66667 1-.73333 1.8666-1.66666 2.5333-2.73333-.9333.4-1.9333.73333-2.9333.8.8666-.73333 1.6666-1.8 2.0666-3z" fill="#ff903f"/></svg>

<svg width="25" height="21" viewBox="0 0 25 21" fill="none" xmlns="http://www.w3.org/2000/svg">
<path d="M24.1333 0.4C23.1333 1 22.0667 1.46667 20.8667 1.66667C19.9333 0.666667 18.6 0 17.1333 0C14.3333 0 12 2.33333 12 5.26667C12 5.66667 12.0667 6.06667 12.1333 6.46667C7.86667 6.26667 4.13333 4.13333 1.6 1C1.13333 1.8 0.933333 2.66667 0.933333 3.66667C0.933333 5.46667 1.86667 7.06667 3.2 8.06667C2.33333 8.06667 1.6 7.8 0.866667 7.4V7.46667C0.866667 10 2.6 12.1333 5 12.6C4.6 12.7333 4.13333 12.8 3.66667 12.8C3.33333 12.8 3 12.8 2.73333 12.7333C3.4 14.8 5.26667 16.3333 7.53333 16.4C5.8 17.8 3.6 18.6667 1.2 18.6667C0.8 18.6667 0.4 18.6667 0 18.6C2.26667 20.0667 4.93333 20.9333 7.86667 20.9333C17.2667 20.9333 22.4667 12.9333 22.4667 6C22.4667 5.8 22.4667 5.53333 22.4667 5.33333C23.4667 4.6 24.3333 3.66667 25 2.6C24.0667 3 23.0667 3.33333 22.0667 3.4C22.9333 2.66667 23.7333 1.6 24.1333 0.4Z" fill="#FF903F"/>
</svg>
